dist/images/about/how-work-2.svg

<svg width="46" height="48" viewBox="0 0 46 48" fill="none" xmlns="http://www.w3.org/2000/svg">
<path d="M0.599609 38.4004V44.8004C0.599609 46.5677 2.03227 48.0004 3.79958 48.0004H42.1996C43.9669 48.0004 45.3995 46.5677 45.3995 44.8004V38.4004H0.599609Z" fill="#BAC0C6"/>
<path d="M43.1784 38.4004V44.8005C43.1784 46.5677 41.7457 48.0004 39.9785 48.0004H42.1998C43.9672 48.0004 45.3997 46.5677 45.3997 44.8005V38.4004H43.1784Z" fill="#BAC0C6"/>
<path d="M0.599609 12.8008V41.6008C0.599609 43.368 2.03227 44.8006 3.79948 44.8006H42.1996C43.9669 44.8006 45.3995 43.368 45.3995 41.6008V12.8008H0.599609Z" fill="#EDF5FF"/>
<path d="M43.1784 12.8008V41.6008C43.1784 43.368 41.7457 44.8006 39.9785 44.8006H42.1998C43.9672 44.8006 45.3997 43.368 45.3997 41.6008V12.8008H43.1784Z" fill="black" fill-opacity="0.1"/>
<path d="M45.3994 14.3992V6.39909C45.3994 4.63178 43.9668 3.19922 42.1996 3.19922H3.79948C2.03217 3.19922 0.599609 4.63188 0.599609 6.39909V14.3992H45.3994Z" fill="url(#paint0_linear_747_296329)"/>
<path d="M10.1994 7.12448H8.59934C8.19931 7.12448 7.875 6.80016 7.875 6.40013C7.875 6.0001 8.19931 5.67578 8.59934 5.67578H10.1994C10.5994 5.67578 10.9237 6.0001 10.9237 6.40013C10.9237 6.80016 10.5994 7.12448 10.1994 7.12448Z" fill="#112E49"/>
<path d="M15.0002 7.12448H13.4001C13.0001 7.12448 12.6758 6.80016 12.6758 6.40013C12.6758 6.0001 13.0001 5.67578 13.4001 5.67578H15.0001C15.4001 5.67578 15.7244 6.0001 15.7244 6.40013C15.7244 6.80016 15.4002 7.12448 15.0002 7.12448Z" fill="#112E49"/>
<path d="M32.5997 7.12448H30.9997C30.5997 7.12448 30.2754 6.80016 30.2754 6.40013C30.2754 6.0001 30.5997 5.67578 30.9997 5.67578H32.5997C32.9997 5.67578 33.324 6.0001 33.324 6.40013C33.324 6.80016 32.9997 7.12448 32.5997 7.12448Z" fill="#112E49"/>
<path d="M37.4005 7.12448H35.8005C35.4005 7.12448 35.0762 6.80016 35.0762 6.40013C35.0762 6.0001 35.4005 5.67578 35.8005 5.67578H37.4005C37.8006 5.67578 38.1249 6.0001 38.1249 6.40013C38.1249 6.80016 37.8006 7.12448 37.4005 7.12448Z" fill="#112E49"/>
<path d="M10.1993 6.40003C10.1993 7.28364 10.9156 8.00006 11.7994 8.00006C12.6831 8.00006 13.3994 7.28373 13.3994 6.40003V1.60003C13.3993 0.71633 12.683 0 11.7993 0C10.9156 0 10.1992 0.71633 10.1992 1.60003V6.40003H10.1993Z" fill="url(#paint1_linear_747_296329)"/>
<path d="M32.5996 6.40003C32.5996 7.28364 33.3159 8.00006 34.1996 8.00006C35.0833 8.00006 35.7997 7.28373 35.7997 6.40003V1.60003C35.7997 0.71633 35.0833 0 34.1996 0C33.3159 0 32.5996 0.71633 32.5996 1.60003V6.40003Z" fill="url(#paint2_linear_747_296329)"/>
<path d="M42.1998 3.19922H39.9785C41.7458 3.19922 43.1784 4.63188 43.1784 6.39909V14.3993H45.3997V6.39919C45.3998 4.63188 43.9672 3.19922 42.1998 3.19922Z" fill="url(#paint3_linear_747_296329)"/>
<path d="M0.599609 10.4746H45.3996V11.9233H0.599609V10.4746Z" fill="url(#paint4_linear_747_296329)"/>
<path d="M23.8008 25.1992C23.8008 21.8908 21.1092 19.1992 17.8008 19.1992C14.4924 19.1992 11.8008 21.8908 11.8008 25.1992C11.8008 26.0829 12.5171 26.7992 13.4008 26.7992C14.2845 26.7992 15.0008 26.0829 15.0008 25.1992C15.0008 23.6553 16.2569 22.3992 17.8009 22.3992C19.3448 22.3992 20.6009 23.6552 20.6009 25.1992C20.6009 26.7432 19.3449 27.9992 17.8009 27.9992C16.9172 27.9992 16.2008 28.7156 16.2008 29.5993C16.2008 30.483 16.9172 31.1993 17.8009 31.1993C19.3448 31.1993 20.6009 32.4553 20.6009 33.9993C20.6009 35.5432 19.3449 36.7994 17.8009 36.7994C16.257 36.7994 15.0008 35.5433 15.0008 33.9993C15.0008 33.1156 14.2845 32.3993 13.4008 32.3993C12.5171 32.3993 11.8008 33.1156 11.8008 33.9993C11.8008 37.3077 14.4924 39.9993 17.8008 39.9993C21.1092 39.9993 23.8008 37.3077 23.8008 33.9993C23.8008 32.2623 23.058 30.696 21.8743 29.5994C23.0581 28.5025 23.8008 26.9363 23.8008 25.1992Z" fill="#112E49"/>
<path d="M31.4885 19.3211C30.8905 19.0733 30.2023 19.2104 29.7448 19.668L26.5448 22.868C25.92 23.4928 25.92 24.5059 26.5448 25.1307C27.1696 25.7554 28.1827 25.7554 28.8075 25.1307L29.2762 24.662V38.3993C29.2762 39.283 29.9925 39.9993 30.8762 39.9993C31.7599 39.9993 32.4763 39.283 32.4763 38.3993V20.7994C32.4762 20.1522 32.0863 19.5687 31.4885 19.3211Z" fill="#112E49"/>
<defs>
<linearGradient id="paint0_linear_747_296329" x1="22.9995" y1="3.19922" x2="22.9995" y2="14.3992" gradientUnits="userSpaceOnUse">
<stop stop-color="#D86161"/>
<stop offset="1" stop-color="#C94646"/>
</linearGradient>
<linearGradient id="paint1_linear_747_296329" x1="11.7993" y1="0" x2="11.7993" y2="8.00006" gradientUnits="userSpaceOnUse">
<stop stop-color="#B6B6B6"/>
<stop offset="1" stop-color="#8B8B8B"/>
</linearGradient>
<linearGradient id="paint2_linear_747_296329" x1="34.1996" y1="0" x2="34.1996" y2="8.00006" gradientUnits="userSpaceOnUse">
<stop stop-color="#B6B6B6"/>
<stop offset="1" stop-color="#8B8B8B"/>
</linearGradient>
<linearGradient id="paint3_linear_747_296329" x1="42.6891" y1="3.19922" x2="42.6891" y2="14.3993" gradientUnits="userSpaceOnUse">
<stop stop-color="#D86161"/>
<stop offset="1" stop-color="#C94646"/>
</linearGradient>
<linearGradient id="paint4_linear_747_296329" x1="22.9996" y1="10.4746" x2="22.9996" y2="11.9233" gradientUnits="userSpaceOnUse">
<stop stop-color="#D86161"/>
<stop offset="1" stop-color="#C94646"/>
</linearGradient>
</defs>
</svg>

<svg width="46" height="48" fill="none" xmlns="http://www.w3.org/2000/svg"><path d="M.6 38.4v6.4A3.2 3.2 0 003.8 48h38.4a3.2 3.2 0 003.2-3.2v-6.4H.6z" fill="#BAC0C6"/><path d="M43.178 38.4v6.4a3.2 3.2 0 01-3.2 3.2H42.2a3.2 3.2 0 003.2-3.2v-6.4h-2.222z" fill="#BAC0C6"/><path d="M.6 12.8v28.8a3.2 3.2 0 003.2 3.2h38.4a3.2 3.2 0 003.2-3.2V12.8H.6z" fill="#EDF5FF"/><path d="M43.178 12.8v28.8a3.2 3.2 0 01-3.2 3.2H42.2a3.2 3.2 0 003.2-3.2V12.8h-2.222z" fill="#000" fill-opacity=".1"/><path d="M45.4 14.4v-8a3.2 3.2 0 00-3.2-3.2H3.8A3.2 3.2 0 00.6 6.4v8h44.8z" fill="url(#paint0_linear_747_296329)"/><path d="M10.2 7.124H8.6a.724.724 0 010-1.448h1.6a.724.724 0 010 1.448zm4.8 0h-1.6a.724.724 0 010-1.448H15a.724.724 0 010 1.448zm17.6 0H31a.724.724 0 010-1.448h1.6a.724.724 0 010 1.448zm4.8 0h-1.6a.724.724 0 010-1.448h1.6a.724.724 0 110 1.448z" fill="#112E49"/><path d="M10.2 6.4a1.6 1.6 0 003.2 0V1.6a1.6 1.6 0 00-3.2 0v4.8z" fill="url(#paint1_linear_747_296329)"/><path d="M32.6 6.4a1.6 1.6 0 103.2 0V1.6a1.6 1.6 0 00-3.2 0v4.8z" fill="url(#paint2_linear_747_296329)"/><path d="M42.2 3.2h-2.222a3.2 3.2 0 013.2 3.2v8H45.4v-8a3.2 3.2 0 00-3.2-3.2z" fill="url(#paint3_linear_747_296329)"/><path d="M.6 10.475h44.8v1.448H.6v-1.448z" fill="url(#paint4_linear_747_296329)"/><path d="M23.8 25.2c0-3.31-2.69-6-6-6-3.308 0-6 2.69-6 6a1.6 1.6 0 103.2 0c0-1.545 1.257-2.8 2.8-2.8 1.545 0 2.8 1.255 2.8 2.8 0 1.543-1.255 2.8-2.8 2.8a1.6 1.6 0 000 3.2c1.545 0 2.8 1.255 2.8 2.8 0 1.543-1.255 2.8-2.8 2.8A2.803 2.803 0 0115 34a1.6 1.6 0 10-3.2 0c0 3.308 2.692 6 6 6 3.31 0 6-2.692 6-6a5.984 5.984 0 00-1.926-4.4 5.984 5.984 0 001.927-4.4zm7.688-5.879a1.6 1.6 0 00-1.743.347l-3.2 3.2a1.6 1.6 0 002.262 2.263l.47-.469v13.737a1.6 1.6 0 103.2 0V20.8a1.6 1.6 0 00-.988-1.478z" fill="#112E49"/><defs><linearGradient id="paint0_linear_747_296329" x1="23" y1="3.199" x2="23" y2="14.399" gradientUnits="userSpaceOnUse"><stop stop-color="#D86161"/><stop offset="1" stop-color="#C94646"/></linearGradient><linearGradient id="paint1_linear_747_296329" x1="11.799" y1="0" x2="11.799" y2="8" gradientUnits="userSpaceOnUse"><stop stop-color="#B6B6B6"/><stop offset="1" stop-color="#8B8B8B"/></linearGradient><linearGradient id="paint2_linear_747_296329" x1="34.2" y1="0" x2="34.2" y2="8" gradientUnits="userSpaceOnUse"><stop stop-color="#B6B6B6"/><stop offset="1" stop-color="#8B8B8B"/></linearGradient><linearGradient id="paint3_linear_747_296329" x1="42.689" y1="3.199" x2="42.689" y2="14.399" gradientUnits="userSpaceOnUse"><stop stop-color="#D86161"/><stop offset="1" stop-color="#C94646"/></linearGradient><linearGradient id="paint4_linear_747_296329" x1="23" y1="10.475" x2="23" y2="11.923" gradientUnits="userSpaceOnUse"><stop stop-color="#D86161"/><stop offset="1" stop-color="#C94646"/></linearGradient></defs></svg>
